src/assets/icon/jungle.svg

<svg width="100" height="100" viewBox="0 0 100 100" fill="none" xmlns="http://www.w3.org/2000/svg">
<g id="jungle" clip-path="url(#clip0_2250_88109)">
<path id="JUNGLE" d="M5.36809 100.24C4.29609 100.24 3.30409 100.032 2.39209 99.616C1.49609 99.2 0.760094 98.6 0.184094 97.816L1.96009 95.68C2.42409 96.32 2.92809 96.8 3.47209 97.12C4.03209 97.44 4.64009 97.6 5.29609 97.6C7.04009 97.6 7.91209 96.568 7.91209 94.504V85.816H1.93609V83.2H11.0321V94.336C11.0321 96.32 10.5441 97.8 9.56809 98.776C8.60809 99.752 7.20809 100.24 5.36809 100.24ZM22.6323 100.24C20.3283 100.24 18.5203 99.592 17.2083 98.296C15.9123 97 15.2643 95.128 15.2643 92.68V83.2H18.3843V92.56C18.3843 94.288 18.7523 95.544 19.4883 96.328C20.2403 97.112 21.2963 97.504 22.6563 97.504C24.0163 97.504 25.0643 97.112 25.8003 96.328C26.5363 95.544 26.9043 94.288 26.9043 92.56V83.2H29.9763V92.68C29.9763 95.128 29.3203 97 28.0083 98.296C26.7123 99.592 24.9203 100.24 22.6323 100.24ZM34.3458 100V83.2H36.9138L47.4498 96.136H46.1778V83.2H49.2738V100H46.7058L36.1698 87.064H37.4418V100H34.3458ZM61.6235 100.24C60.3115 100.24 59.1035 100.032 57.9995 99.616C56.9115 99.184 55.9595 98.584 55.1435 97.816C54.3275 97.032 53.6955 96.112 53.2475 95.056C52.7995 94 52.5755 92.848 52.5755 91.6C52.5755 90.352 52.7995 89.2 53.2475 88.144C53.6955 87.088 54.3275 86.176 55.1435 85.408C55.9755 84.624 56.9435 84.024 58.0475 83.608C59.1515 83.176 60.3595 82.96 61.6715 82.96C63.0955 82.96 64.3755 83.192 65.5115 83.656C66.6635 84.12 67.6315 84.8 68.4155 85.696L66.4475 87.616C65.7915 86.96 65.0795 86.48 64.3115 86.176C63.5595 85.856 62.7275 85.696 61.8155 85.696C60.9355 85.696 60.1195 85.84 59.3675 86.128C58.6155 86.416 57.9675 86.824 57.4235 87.352C56.8795 87.88 56.4555 88.504 56.1515 89.224C55.8635 89.944 55.7195 90.736 55.7195 91.6C55.7195 92.448 55.8635 93.232 56.1515 93.952C56.4555 94.672 56.8795 95.304 57.4235 95.848C57.9675 96.376 58.6075 96.784 59.3435 97.072C60.0795 97.36 60.8955 97.504 61.7915 97.504C62.6235 97.504 63.4235 97.376 64.1915 97.12C64.9755 96.848 65.7195 96.4 66.4235 95.776L68.1995 98.104C67.3195 98.808 66.2955 99.344 65.1275 99.712C63.9755 100.064 62.8075 100.24 61.6235 100.24ZM65.2475 97.696V91.408H68.1995V98.104L65.2475 97.696ZM72.3146 100V83.2H75.4346V97.36H84.2186V100H72.3146ZM89.5618 90.184H97.9138V92.752H89.5618V90.184ZM89.8018 97.384H99.2818V100H86.6818V83.2H98.9458V85.816H89.8018V97.384Z" fill="url(#paint0_linear_2250_88109)"/>
<g id="Jungle" clip-path="url(#clip1_2250_88109)">
<path id="Subtract" fill-rule="evenodd" clip-rule="evenodd" d="M48.7937 0H85L70.3782 19.6133C70.3782 19.6133 66.6357 25.1378 70.3782 29.3546C74.1207 33.5715 76.7607 36.3501 76.7607 36.3501L76.4126 48.9026L68.8696 55.3096V62.2397H52.4642L50.1131 59.5905C50.1131 59.5905 68.2441 53.9511 61.6818 46.5555C55.1194 39.16 42.1791 42.1033 42.1791 42.1033L39.0459 49.1641L43.5716 49.5564L46.4728 54.0021H32.7794L29.1239 58.1209L34.6361 64.3317H40.0195L41.5629 62.5927V68.1237L39.8976 70H26.2727L15 57.2984L18.5294 53.3216C21.8452 50.3852 25.3087 45.6368 28.0356 41.4594C29.575 39.1013 30.8869 36.9135 31.8139 35.3154C32.2775 34.5163 32.6449 33.8643 32.8967 33.4118C33.0225 33.1856 33.1194 33.0093 33.185 32.8893L33.2357 32.7963L33.2595 32.7525L33.2785 32.7174L33.2833 32.7084L33.2846 32.7061L33.2849 32.7055C33.285 32.7053 33.285 32.7052 33.0114 32.5582C32.7378 32.4111 32.7378 32.4111 32.7378 32.4112L32.7375 32.4117L32.7364 32.4138L32.7318 32.4223L32.7133 32.4565L32.6753 32.5263L32.6398 32.5914C32.575 32.71 32.4788 32.885 32.3538 33.1098C32.1036 33.5594 31.738 34.2081 31.2765 35.0037C30.3534 36.5951 29.0473 38.7731 27.5154 41.1198C24.8147 45.257 21.4344 49.8832 18.2262 52.7599H16.7651L17.3453 45.7645L15 42.7584L19.5607 39.6435C21.2205 38.8397 22.7592 37.7345 23.9353 36.7784C24.6356 36.2091 25.2114 35.6893 25.6124 35.3115C25.813 35.1225 25.9701 34.9689 26.0774 34.8622C26.131 34.8088 26.1722 34.7671 26.2002 34.7386L26.2321 34.7059L26.2405 34.6972L26.2427 34.6949L26.2434 34.6943L26.2435 34.694C26.2436 34.694 26.2437 34.6939 26.0195 34.4789L25.7954 34.2638L25.7954 34.2638L25.795 34.2642L25.7934 34.2659L25.7862 34.2733L25.7567 34.3035C25.7304 34.3304 25.6909 34.3703 25.6391 34.4218C25.5355 34.5249 25.3826 34.6745 25.1864 34.8593C24.7941 35.2289 24.2298 35.7384 23.5434 36.2964C22.643 37.0283 21.5394 37.8382 20.3434 38.5257L20.1304 32.1659H22.3353V24.8436H28.8338V22.2284H34.6361L47.4569 7.78257L48.7937 0Z" fill="url(#paint1_linear_2250_88109)"/>
</g>
</g>
<defs>
<linearGradient id="paint0_linear_2250_88109" x1="-4.72154" y1="91.5001" x2="102.848" y2="91.5001" gradientUnits="userSpaceOnUse">
<stop stop-color="#AB750F"/>
<stop offset="0.516" stop-color="#D8A956"/>
<stop offset="1" stop-color="#AB750F"/>
</linearGradient>
<linearGradient id="paint1_linear_2250_88109" x1="11.7276" y1="35.0003" x2="86.2805" y2="35.0003" gradientUnits="userSpaceOnUse">
<stop stop-color="#AB750F"/>
<stop offset="0.516" stop-color="#D8A956"/>
<stop offset="1" stop-color="#AB750F"/>
</linearGradient>
<clipPath id="clip0_2250_88109">
<rect width="100" height="100" fill="white"/>
</clipPath>
<clipPath id="clip1_2250_88109">
<rect width="70" height="70" fill="white" transform="translate(15)"/>
</clipPath>
</defs>
</svg>

<svg xmlns="http://www.w3.org/2000/svg" width="100" height="100" fill="none" xmlns:v="https://vecta.io/nano"><g clip-path="url(#C)"><path d="M5.368 100.24c-1.072 0-2.064-.208-2.976-.624a5.64 5.64 0 0 1-2.208-1.8L1.96 95.68c.464.64.968 1.12 1.512 1.44.56.32 1.168.48 1.824.48 1.744 0 2.616-1.032 2.616-3.096v-8.688H1.936V83.2h9.096v11.136c0 1.984-.488 3.464-1.464 4.44-.96.976-2.36 1.464-4.2 1.464zm17.264 0c-2.304 0-4.112-.648-5.424-1.944-1.296-1.296-1.944-3.168-1.944-5.616V83.2h3.12v9.36c0 1.728.368 2.984 1.104 3.768.752.784 1.808 1.176 3.168 1.176s2.408-.392 3.144-1.176 1.104-2.04 1.104-3.768V83.2h3.072v9.48c0 2.448-.656 4.32-1.968 5.616-1.296 1.296-3.088 1.944-5.376 1.944zm11.713-.24V83.2h2.568L47.45 96.136h-1.272V83.2h3.096V100h-2.568L36.17 87.064h1.272V100h-3.096zm27.278.24c-1.312 0-2.52-.208-3.624-.624-1.088-.432-2.04-1.032-2.856-1.8-.816-.784-1.448-1.704-1.896-2.76s-.672-2.208-.672-3.456.224-2.4.672-3.456 1.08-1.968 1.896-2.736c.832-.784 1.8-1.384 2.904-1.8 1.104-.432 2.312-.648 3.624-.648 1.424 0 2.704.232 3.84.696 1.152.464 2.12 1.144 2.904 2.04l-1.968 1.92c-.656-.656-1.368-1.136-2.136-1.44-.752-.32-1.584-.48-2.496-.48-.88 0-1.696.144-2.448.432a5.66 5.66 0 0 0-1.944 1.224 5.63 5.63 0 0 0-1.272 1.872c-.288.72-.432 1.512-.432 2.376 0 .848.144 1.632.432 2.352a5.9 5.9 0 0 0 1.272 1.896c.544.528 1.184.936 1.92 1.224s1.552.432 2.448.432a7.54 7.54 0 0 0 2.4-.384c.784-.272 1.528-.72 2.232-1.344l1.776 2.328c-.88.704-1.904 1.24-3.072 1.608a11.93 11.93 0 0 1-3.504.528zm3.624-2.544v-6.288H68.2v6.696l-2.952-.408zM72.315 100V83.2h3.12v14.16h8.784V100H72.315zm17.247-9.816h8.352v2.568h-8.352v-2.568zm.24 7.2h9.48V100h-12.6V83.2h12.264v2.616h-9.144v11.568z" fill="url(#A)"/><g clip-path="url(#D)"><path fill-rule="evenodd" d="M48.794 0H85L70.378 19.613s-3.743 5.525 0 9.741l6.382 6.995-.348 12.553-7.543 6.407v6.93H52.464l-2.351-2.649s18.131-5.639 11.569-13.035-19.503-4.452-19.503-4.452l-3.133 7.061 4.526.392 2.901 4.446H32.779l-3.656 4.119 5.512 6.211h5.383l1.543-1.739v5.531L39.898 70H26.273L15 57.298l3.529-3.977c3.316-2.936 6.779-7.685 9.506-11.862a138.97 138.97 0 0 0 3.778-6.144l1.083-1.904.288-.523.051-.093.024-.044.019-.035.005-.009.001-.002h0c0 0 0 0-.273-.147l-.274-.147v.001l-.001.002-.005.008-.019.034-.038.07-.035.065-.286.518-1.077 1.894c-.923 1.591-2.229 3.769-3.761 6.116-2.701 4.137-6.081 8.763-9.289 11.64h-1.461l.58-6.995L15 42.758l4.561-3.115c1.66-.804 3.198-1.909 4.375-2.865a30.85 30.85 0 0 0 1.677-1.467l.465-.449.123-.124.032-.033.008-.009.002-.002v-.001h0c0 0 0 0-.224-.215l-.224-.215h0 0l-.002.002-.007.007-.03.03-.118.118-.453.438a30.23 30.23 0 0 1-1.643 1.437c-.9.732-2.004 1.542-3.2 2.229l-.213-6.36h2.205v-7.322h6.499v-2.615h5.802L47.457 7.783 48.794 0z" fill="url(#B)"/></g></g><defs><linearGradient id="A" x1="-4.722" y1="91.5" x2="102.848" y2="91.5" gradientUnits="userSpaceOnUse"><stop stop-color="#ab750f"/><stop offset=".516" stop-color="#d8a956"/><stop offset="1" stop-color="#ab750f"/></linearGradient><linearGradient id="B" x1="11.728" y1="35" x2="86.281" y2="35" gradientUnits="userSpaceOnUse"><stop stop-color="#ab750f"/><stop offset=".516" stop-color="#d8a956"/><stop offset="1" stop-color="#ab750f"/></linearGradient><clipPath id="C"><path fill="#fff" d="M0 0h100v100H0z"/></clipPath><clipPath id="D"><path fill="#fff" transform="translate(15)" d="M0 0h70v70H0z"/></clipPath></defs></svg>
